X:1
T:Title
%%score { 1 | 2 }
L:1/8
M:3/4
K:F
V:1 treble nm="Grand Piano"
V:2 bass 
V:1
 z2 z2[Q:1/4=86] (3FEF | B2 F2 (3BAB | d2 B2 (3[DB][_Ec][Fd] | [Gc]>[_EGc] [DFB]2 [CFA]2 | %4
 [DFB]4 (3FEF | B2 F2 (3BAB | d2 B2 (3[DB][_Ec][Fd] | [Fc]>[Fc] [Ec]2 [Ec]2 | F4 (3FEF | %9
 [FG]2 [EG]2 (3AGA | [DB]2 F2 (3[DB][CA][DB] | c2 F2 (3cBc | [Fd]4 (3[Fd][E^c][Fd] | %13
 [_Af]2 [G_e]2 (3[_Ec][Fd][Ge] | [G_e]2 [Fd]2 (3[DB][_Ec][Fd] | [Gc]>[Gc] [FB]2 [_EA]2 | %16
[M:2/4] [DB]4 |] %17
V:2
 z2 z2 (3F,E,F, | B,2 F,2 (3B,A,B, | D2 B,2 (3:2:2[B,,B,]2 [B,,B,] | [_E,B,]>E, F,2 F,2 | %4
 B,,4 (3F,E,F, | B,2 F,2 (3B,A,B, | D2 B,2 (3:2:2[B,,F,]2 [B,,B,] | [C,A,]>[C,A,] [C,B,]2 [C,B,]2 | %8
 [F,A,]4 (3:2:2[F,A,C]2 [F,A,C] | [_E,A,]2 [C,B,]2 (3:2:2[F,C_E]2 [F,CE] | %10
 [B,,B,]2 [D,B,]2 (3:2:2[B,,B,]2 [B,,B,] | [F,A,_E]2 [A,CE]2 (3[F,-A,-E][F,A,D][F,A,E] | %12
 [B,,B,]4 (3:2:2[B,,B,]2 [B,,B,] | [_E,B,]2 [E,B,]2 (3:2:2[E,B,]2 [E,B,] | %14
 [B,,B,]2 [B,,B,]2 (3:2:2[B,,F,]2 [B,,B,] | [_E,B,]>[E,B,_E] [F,D]2 [F,C]2 |[M:2/4] [B,,B,]4 |] %17

